ix/arrow-right-3_bulk.svg

<svg viewBox="0 0 24 24" fill="none" xmlns="http://www.w3.org/2000/svg" height="1em" width="1em">
  <path opacity="0.4" d="M13.2297 8.52002L8.17969 12.31V17.92C8.17969 18.88 9.33969 19.36 10.0197 18.68L15.1997 13.5C16.0297 12.67 16.0297 11.32 15.1997 10.49L13.2297 8.52002Z" fill="#292D32"/>
  <path d="M8.17969 6.07993V12.3099L13.2297 8.51993L10.0197 5.30993C9.33969 4.63993 8.17969 5.11993 8.17969 6.07993Z" fill="#292D32"/>
</svg>

<svg viewBox="0 0 24 24" fill="none" xmlns="http://www.w3.org/2000/svg" height="1em" width="1em">
  <path opacity=".4" d="m13.23 8.52-5.05 3.79v5.61c0 .96 1.16 1.44 1.84.76l5.18-5.18c.83-.83.83-2.18 0-3.01l-1.97-1.97Z" fill="#292D32"/>
  <path d="M8.18 6.08v6.23l5.05-3.79-3.21-3.21c-.68-.67-1.84-.19-1.84.77Z" fill="#292D32"/>
</svg>
